X:1
T:Title
%%score { ( 1 3 ) | ( 2 4 ) }
L:1/8
Q:1/4=100
M:4/4
K:Ab
V:1 treble nm="Grand Piano"
V:3 treble 
V:2 bass 
V:4 bass 
V:1
 [Ec]4 [EG]2 [EA]2 | [Dd]6 [Ec]2 | [FB]2 [EG]2 [EA]2 [Ec]2 | [EB]6 z2 | [Ee]4 [EG]2 [E=A]2 | %5
w: Hubert~P.~Main * *|||||
 [EB]4 [Ec]4 | [B,EB]2 [G,E]2 [B,=DG]2 [A,DF]2 | E6 z2 | B4 F2 G2 | A6 z2 | %10
w: |||||
 [Ed]2 [Ec]2 [FB]2 [FA]2 | B6 z2 | A4 z4 | [Ee]4 [Ec]4 | [Ec]B [A,CA]2 [B,FA]2 [DG]2 | [CA]6 z2 |] %16
w: ||||||
V:2
 [A,,A,]4 [B,,E,]2 [C,A,]2 | [F,A,]6 [E,A,]2 | [D,A,]2 [D,B,]2 [C,A,]2 [A,,A,]2 | [E,G,]6 z2 | %4
 [C,G,]4 [C,C]2 [C,F,]2 | [B,,G,]4 [A,,A,]4 | G,,2 C,2 B,,2 B,,2 | [E,G,]6 z2 | %8
 [E,G,D]4 [E,A,D]2 [E,B,D]2 | A,6 z2 | [B,,G,]2 [A,,A,]2 [D,A,]2 [=D,B,]2 | [E,G,E]6 z2 | %12
 A,2 z2 z4 | [C,A,]4 [A,,A,]4 | z D F,2 D,2 E,2 | [A,,E,]6 z2 |] %16
V:3
 x8 | x8 | x8 | x8 | x8 | x8 | x8 | x8 | x8 | z2 _G2 F2 [A,EA]2 | x8 | x8 | z2 C2 [Gc]2 [Fd]2 | %13
 x8 | x8 | x8 |] %16
V:4
 x8 | x8 | x8 | x8 | x8 | x8 | x8 | x8 | x8 | [F,C]2 E,2 D,2 C,2 | x8 | x8 | F,4 [E,E]2 [D,A,]2 | %13
 x8 | [E,G,]2 z2 z4 | x8 |] %16

